packages/kaspersky-hexa-ui-icons/src/iconsSVGs/64x42/FlagVe.svg

<svg xmlns="http://www.w3.org/2000/svg" width="64" height="42" fill="none" viewBox="0 0 64 42"><g clip-path="url(#a)"><rect width="64" height="42" fill="#fff" rx="5"/><path fill="#cf142b" d="M0 0h64v42H0z"/><path fill="#00247d" d="M0 28h64V0H0z"/><path fill="#fc0" d="M0 0h64v14H0z"/><path fill="#fff" d="m18.3013 24.2827 1.4547 1.1188.682-.8592z"/><path fill="#fff" d="m18.3013 24.2827 1.8449.0634-.0386 1.0897z"/><path fill="#fff" d="m20.1005 23.0881-.6314 1.7076 1.0409.373z"/><path fill="#fff" d="m20.1005 23.0881.5089 1.7468-1.0648.3006z"/><path fill="#fff" d="M18.8995 26.3362 20.43 25.32l-.6194-.9039z"/><path fill="#fff" d="m18.8995 26.3362.6314-1.7076 1.0408.3729z"/><path fill="#fff" d="m21.8106 24.4034-1.8449-.0634-.0387 1.0897z"/><path fill="#fff" d="m21.8106 24.4034-1.5304 1.0162-.6194-.9039z"/><path fill="#fff" d="m21.0684 26.4108-.5089-1.7468-1.0647.3005z"/><path fill="#fff" d="m21.068 26.411-1.455-1.119.682-.859zm-.047-6.279.865 1.606.979-.511z"/><path fill="#fff" d="m21.0212 20.1323 1.6583.7985-.4867.9794z"/><path fill="#fff" d="m23.1589 19.7638-1.2839 1.3057.7958.7583z"/><path fill="#fff" d="m23.1589 19.7638-.2591 1.7992-1.0966-.153z"/><path fill="#fff" d="m20.7167 22.2474 1.8184-.3134-.1911-1.074z"/><path fill="#fff" d="m20.7167 22.2474 1.2839-1.3057.7959.7583z"/><path fill="#fff" d="m24.1755 21.6512-1.6583-.7984-.4867.9794z"/><path fill="#fff" d="m24.1755 21.6512-1.8184.3135-.1911-1.0739z"/><path fill="#fff" d="m22.6662 23.1862.259-1.7993-1.0966-.153z"/><path fill="#fff" d="m22.666 23.186-.865-1.605.979-.511zm2.144-5.985.384 1.778 1.083-.227z"/><path fill="#fff" d="m24.8096 17.2014 1.3718 1.216-.7411.8102z"/><path fill="#fff" d="m26.9678 17.4247-1.5987.9086.5538.9442z"/><path fill="#fff" d="m26.9678 17.4247-.7508 1.6601-1.0119-.4435z"/><path fill="#fff" d="m23.9269 19.153 1.8359.1899.1158-1.0843z"/><path fill="#fff" d="m23.9269 19.153 1.5987-.9086.5538.9442z"/><path fill="#fff" d="m27.4189 19.5143-1.3718-1.216-.7412.8103z"/><path fill="#fff" d="m27.4189 19.5143-1.8359-.19.1158-1.0843z"/><path fill="#fff" d="m25.5396 20.5824.7509-1.6601-1.0119-.4435z"/><path fill="#fff" d="m25.54 20.582-.384-1.777 1.083-.227zm3.914-5.005-.257 1.8 1.097.152z"/><path fill="#fff" d="m29.4543 15.5768.8667 1.6045-.978.5118z"/><path fill="#fff" d="m31.4049 16.5133-1.818.3156.1923 1.0737z"/><path fill="#fff" d="m31.4049 16.5133-1.2824 1.3072-.7967-.7574z"/><path fill="#fff" d="m27.9468 17.1135 1.6592.7966.4855-.9799z"/><path fill="#fff" d="m27.9468 17.1135 1.818-.3155.1923 1.0737z"/><path fill="#fff" d="m31.1028 18.6288-.8667-1.6045-.978.5119z"/><path fill="#fff" d="m31.1028 18.6288-1.6592-.7966.4855-.98z"/><path fill="#fff" d="m28.9657 18.9996 1.2824-1.3071-.7968-.7574z"/><path fill="#fff" d="m28.966 19 .257-1.799 1.097.152zm16.751 5.283-1.455 1.119-.682-.859z"/><path fill="#fff" d="m45.7168 24.2827-1.8449.0634.0386 1.0897z"/><path fill="#fff" d="m43.9177 23.0881.6314 1.7076-1.0408.373z"/><path fill="#fff" d="m43.9177 23.0881-.5088 1.7468 1.0647.3006z"/><path fill="#fff" d="M45.1187 26.3362 43.5882 25.32l.6194-.9039z"/><path fill="#fff" d="m45.1187 26.3362-.6314-1.7076-1.0409.3729z"/><path fill="#fff" d="m42.2076 24.4034 1.845-.0634.0386 1.0897z"/><path fill="#fff" d="m42.2076 24.4034 1.5305 1.0162.6194-.9039z"/><path fill="#fff" d="m42.9498 26.4108.5089-1.7468 1.0647.3005z"/><path fill="#fff" d="m42.95 26.411 1.455-1.119-.682-.859zm.047-6.279-.865 1.606-.979-.511z"/><path fill="#fff" d="m42.9969 20.1323-1.6582.7985.4867.9794z"/><path fill="#fff" d="m40.8594 19.7638 1.2839 1.3057-.7959.7583z"/><path fill="#fff" d="m40.8594 19.7638.259 1.7992 1.0967-.153z"/><path fill="#fff" d="m43.3014 22.2474-1.8184-.3134.1911-1.074z"/><path fill="#fff" d="m43.3014 22.2474-1.2839-1.3057-.7959.7583z"/><path fill="#fff" d="m39.8427 21.6512 1.6582-.7984.4867.9794z"/><path fill="#fff" d="m39.8427 21.6512 1.8183.3135.1911-1.0739z"/><path fill="#fff" d="m41.3519 23.1862-.259-1.7993 1.0967-.153z"/><path fill="#fff" d="m41.352 23.186.865-1.605-.979-.511zm-2.143-5.985-.384 1.778-1.083-.227z"/><path fill="#fff" d="m39.2086 17.2014-1.3719 1.216.7412.8102z"/><path fill="#fff" d="m37.0503 17.4247 1.5987.9086-.5538.9442z"/><path fill="#fff" d="m37.0503 17.4247.7508 1.6601 1.0119-.4435z"/><path fill="#fff" d="m40.0913 19.153-1.8359.1899-.1158-1.0843z"/><path fill="#fff" d="m40.0913 19.153-1.5987-.9086-.5538.9442z"/><path fill="#fff" d="m36.5992 19.5143 1.3719-1.216.7412.8103z"/><path fill="#fff" d="m36.5992 19.5143 1.836-.19-.1158-1.0843z"/><path fill="#fff" d="m38.4785 20.5824-.7508-1.6601 1.0118-.4435z"/><path fill="#fff" d="m38.479 20.582.384-1.777-1.083-.227zm-3.915-5.005.257 1.8-1.097.152z"/><path fill="#fff" d="m34.5638 15.5768-.8666 1.6045.978.5118z"/><path fill="#fff" d="m32.6133 16.5133 1.818.3156-.1924 1.0737z"/><path fill="#fff" d="m32.6133 16.5133 1.2824 1.3072.7967-.7574z"/><path fill="#fff" d="m36.0714 17.1135-1.6592.7966-.4856-.9799z"/><path fill="#fff" d="m36.0714 17.1135-1.818-.3155-.1923 1.0737z"/><path fill="#fff" d="m32.9154 18.6288.8667-1.6045.9779.5119z"/><path fill="#fff" d="m32.9154 18.6288 1.6592-.7966-.4855-.98z"/><path fill="#fff" d="m35.0525 18.9996-1.2824-1.3071.7968-.7574z"/><path fill="#fff" d="m35.0525 18.9996-.2569-1.7995-1.0969.1518z"/></g><defs><clipPath id="a"><rect width="64" height="42" fill="#fff" rx="5"/></clipPath></defs></svg>

<svg width="64" height="42" viewBox="0 0 64 42" fill="none" xmlns="http://www.w3.org/2000/svg">
<g clip-path="url(#clip0_37941_2374)">
<rect width="64" height="42" rx="5" fill="white"/>
<path d="M0 0H64V42H0V0Z" fill="#CF142B"/>
<path d="M0 28H64V0H0V28Z" fill="#00247D"/>
<path d="M0 0H64V14H0V0Z" fill="#FFCC00"/>
<path d="M18.3013 24.2827L19.756 25.4015L20.438 24.5423L18.3013 24.2827Z" fill="white"/>
<path d="M18.3013 24.2827L20.1462 24.3461L20.1076 25.4358L18.3013 24.2827Z" fill="white"/>
<path d="M20.1005 23.0881L19.4691 24.7957L20.51 25.1687L20.1005 23.0881Z" fill="white"/>
<path d="M20.1005 23.0881L20.6094 24.8349L19.5446 25.1355L20.1005 23.0881Z" fill="white"/>
<path d="M18.8995 26.3362L20.43 25.32L19.8106 24.4161L18.8995 26.3362Z" fill="white"/>
<path d="M18.8995 26.3362L19.5309 24.6286L20.5717 25.0015L18.8995 26.3362Z" fill="white"/>
<path d="M21.8106 24.4034L19.9657 24.34L19.927 25.4297L21.8106 24.4034Z" fill="white"/>
<path d="M21.8106 24.4034L20.2802 25.4196L19.6608 24.5157L21.8106 24.4034Z" fill="white"/>
<path d="M21.0684 26.4108L20.5595 24.664L19.4948 24.9645L21.0684 26.4108Z" fill="white"/>
<path d="M21.0684 26.4108L19.6137 25.292L20.2956 24.4328L21.0684 26.4108Z" fill="white"/>
<path d="M21.0212 20.1323L21.886 21.7378L22.8646 21.227L21.0212 20.1323Z" fill="white"/>
<path d="M21.0212 20.1323L22.6795 20.9308L22.1928 21.9102L21.0212 20.1323Z" fill="white"/>
<path d="M23.1589 19.7638L21.875 21.0695L22.6708 21.8278L23.1589 19.7638Z" fill="white"/>
<path d="M23.1589 19.7638L22.8998 21.563L21.8032 21.41L23.1589 19.7638Z" fill="white"/>
<path d="M20.7167 22.2474L22.5351 21.934L22.344 20.86L20.7167 22.2474Z" fill="white"/>
<path d="M20.7167 22.2474L22.0006 20.9417L22.7965 21.7L20.7167 22.2474Z" fill="white"/>
<path d="M24.1755 21.6512L22.5172 20.8528L22.0305 21.8322L24.1755 21.6512Z" fill="white"/>
<path d="M24.1755 21.6512L22.3571 21.9647L22.166 20.8908L24.1755 21.6512Z" fill="white"/>
<path d="M22.6662 23.1862L22.9252 21.3869L21.8286 21.2339L22.6662 23.1862Z" fill="white"/>
<path d="M22.6662 23.1862L21.8014 21.5807L22.78 21.0699L22.6662 23.1862Z" fill="white"/>
<path d="M24.8096 17.2014L25.1934 18.9789L26.2768 18.7522L24.8096 17.2014Z" fill="white"/>
<path d="M24.8096 17.2014L26.1814 18.4174L25.4403 19.2276L24.8096 17.2014Z" fill="white"/>
<path d="M26.9678 17.4247L25.3691 18.3333L25.9229 19.2775L26.9678 17.4247Z" fill="white"/>
<path d="M26.9678 17.4247L26.217 19.0848L25.2051 18.6413L26.9678 17.4247Z" fill="white"/>
<path d="M23.9269 19.153L25.7628 19.3429L25.8786 18.2586L23.9269 19.153Z" fill="white"/>
<path d="M23.9269 19.153L25.5256 18.2444L26.0794 19.1886L23.9269 19.153Z" fill="white"/>
<path d="M27.4189 19.5143L26.0471 18.2983L25.3059 19.1086L27.4189 19.5143Z" fill="white"/>
<path d="M27.4189 19.5143L25.583 19.3243L25.6988 18.24L27.4189 19.5143Z" fill="white"/>
<path d="M25.5396 20.5824L26.2905 18.9223L25.2786 18.4788L25.5396 20.5824Z" fill="white"/>
<path d="M25.5396 20.5824L25.1558 18.8049L26.2392 18.5782L25.5396 20.5824Z" fill="white"/>
<path d="M29.4543 15.5768L29.1974 17.3763L30.2943 17.528L29.4543 15.5768Z" fill="white"/>
<path d="M29.4543 15.5768L30.321 17.1813L29.343 17.6931L29.4543 15.5768Z" fill="white"/>
<path d="M31.4049 16.5133L29.5869 16.8289L29.7792 17.9026L31.4049 16.5133Z" fill="white"/>
<path d="M31.4049 16.5133L30.1225 17.8205L29.3258 17.0631L31.4049 16.5133Z" fill="white"/>
<path d="M27.9468 17.1135L29.606 17.9101L30.0915 16.9302L27.9468 17.1135Z" fill="white"/>
<path d="M27.9468 17.1135L29.7648 16.798L29.9571 17.8717L27.9468 17.1135Z" fill="white"/>
<path d="M31.1028 18.6288L30.2361 17.0243L29.2581 17.5362L31.1028 18.6288Z" fill="white"/>
<path d="M31.1028 18.6288L29.4436 17.8322L29.9291 16.8522L31.1028 18.6288Z" fill="white"/>
<path d="M28.9657 18.9996L30.2481 17.6925L29.4513 16.9351L28.9657 18.9996Z" fill="white"/>
<path d="M28.9657 18.9996L29.2226 17.2001L30.3195 17.3519L28.9657 18.9996Z" fill="white"/>
<path d="M45.7168 24.2827L44.2621 25.4015L43.5802 24.5423L45.7168 24.2827Z" fill="white"/>
<path d="M45.7168 24.2827L43.8719 24.3461L43.9105 25.4358L45.7168 24.2827Z" fill="white"/>
<path d="M43.9177 23.0881L44.5491 24.7957L43.5083 25.1687L43.9177 23.0881Z" fill="white"/>
<path d="M43.9177 23.0881L43.4089 24.8349L44.4736 25.1355L43.9177 23.0881Z" fill="white"/>
<path d="M45.1187 26.3362L43.5882 25.32L44.2076 24.4161L45.1187 26.3362Z" fill="white"/>
<path d="M45.1187 26.3362L44.4873 24.6286L43.4464 25.0015L45.1187 26.3362Z" fill="white"/>
<path d="M42.2076 24.4034L44.0526 24.34L44.0912 25.4297L42.2076 24.4034Z" fill="white"/>
<path d="M42.2076 24.4034L43.7381 25.4196L44.3575 24.5157L42.2076 24.4034Z" fill="white"/>
<path d="M42.9498 26.4108L43.4587 24.664L44.5234 24.9645L42.9498 26.4108Z" fill="white"/>
<path d="M42.9498 26.4108L44.4045 25.292L43.7226 24.4328L42.9498 26.4108Z" fill="white"/>
<path d="M42.9969 20.1323L42.1322 21.7378L41.1536 21.227L42.9969 20.1323Z" fill="white"/>
<path d="M42.9969 20.1323L41.3387 20.9308L41.8254 21.9102L42.9969 20.1323Z" fill="white"/>
<path d="M40.8594 19.7638L42.1433 21.0695L41.3474 21.8278L40.8594 19.7638Z" fill="white"/>
<path d="M40.8594 19.7638L41.1184 21.563L42.2151 21.41L40.8594 19.7638Z" fill="white"/>
<path d="M43.3014 22.2474L41.483 21.934L41.6741 20.86L43.3014 22.2474Z" fill="white"/>
<path d="M43.3014 22.2474L42.0175 20.9417L41.2216 21.7L43.3014 22.2474Z" fill="white"/>
<path d="M39.8427 21.6512L41.5009 20.8528L41.9876 21.8322L39.8427 21.6512Z" fill="white"/>
<path d="M39.8427 21.6512L41.661 21.9647L41.8521 20.8908L39.8427 21.6512Z" fill="white"/>
<path d="M41.3519 23.1862L41.0929 21.3869L42.1896 21.2339L41.3519 23.1862Z" fill="white"/>
<path d="M41.3519 23.1862L42.2167 21.5807L41.2381 21.0699L41.3519 23.1862Z" fill="white"/>
<path d="M39.2086 17.2014L38.8248 18.9789L37.7414 18.7522L39.2086 17.2014Z" fill="white"/>
<path d="M39.2086 17.2014L37.8367 18.4174L38.5779 19.2276L39.2086 17.2014Z" fill="white"/>
<path d="M37.0503 17.4247L38.649 18.3333L38.0952 19.2775L37.0503 17.4247Z" fill="white"/>
<path d="M37.0503 17.4247L37.8011 19.0848L38.813 18.6413L37.0503 17.4247Z" fill="white"/>
<path d="M40.0913 19.153L38.2554 19.3429L38.1396 18.2586L40.0913 19.153Z" fill="white"/>
<path d="M40.0913 19.153L38.4926 18.2444L37.9388 19.1886L40.0913 19.153Z" fill="white"/>
<path d="M36.5992 19.5143L37.9711 18.2983L38.7123 19.1086L36.5992 19.5143Z" fill="white"/>
<path d="M36.5992 19.5143L38.4352 19.3243L38.3194 18.24L36.5992 19.5143Z" fill="white"/>
<path d="M38.4785 20.5824L37.7277 18.9223L38.7395 18.4788L38.4785 20.5824Z" fill="white"/>
<path d="M38.4785 20.5824L38.8623 18.8049L37.7789 18.5782L38.4785 20.5824Z" fill="white"/>
<path d="M34.5638 15.5768L34.8208 17.3763L33.7239 17.528L34.5638 15.5768Z" fill="white"/>
<path d="M34.5638 15.5768L33.6972 17.1813L34.6752 17.6931L34.5638 15.5768Z" fill="white"/>
<path d="M32.6133 16.5133L34.4313 16.8289L34.2389 17.9026L32.6133 16.5133Z" fill="white"/>
<path d="M32.6133 16.5133L33.8957 17.8205L34.6924 17.0631L32.6133 16.5133Z" fill="white"/>
<path d="M36.0714 17.1135L34.4122 17.9101L33.9266 16.9302L36.0714 17.1135Z" fill="white"/>
<path d="M36.0714 17.1135L34.2534 16.798L34.0611 17.8717L36.0714 17.1135Z" fill="white"/>
<path d="M32.9154 18.6288L33.7821 17.0243L34.76 17.5362L32.9154 18.6288Z" fill="white"/>
<path d="M32.9154 18.6288L34.5746 17.8322L34.0891 16.8522L32.9154 18.6288Z" fill="white"/>
<path d="M35.0525 18.9996L33.7701 17.6925L34.5669 16.9351L35.0525 18.9996Z" fill="white"/>
<path d="M35.0525 18.9996L34.7956 17.2001L33.6987 17.3519L35.0525 18.9996Z" fill="white"/>
</g>
<defs>
<clipPath id="clip0_37941_2374">
<rect width="64" height="42" rx="5" fill="white"/>
</clipPath>
</defs>
</svg>
